X:93
M:6/8
L:1/8
Q:3/8=100
K:A
|:c/d/|ecA Ace|agf ede|fed cBA|GAB Bcd|\
ecA Ace|agf ede|fed cBA|EAG A2:|

